icons/User-Navicons.svg

<svg width="16" height="16" viewBox="0 0 16 16" fill="currentColor" xmlns="http://www.w3.org/2000/svg">
<g clip-path="url(#clip0_4_1436)">
<path fill-rule="evenodd" clip-rule="evenodd" d="M6.48524 1.50002C6.92227 1.05032 7.51236 0.799997 8.125 0.799997C8.73764 0.799997 9.32774 1.05032 9.76476 1.50002C10.2022 1.95013 10.45 2.56313 10.45 3.20478C10.45 3.89653 10.17 4.86548 9.70242 5.66097C9.47066 6.05527 9.20467 6.38623 8.92567 6.61422C8.6471 6.84187 8.3776 6.95 8.125 6.95C7.87296 6.95 7.60365 6.8416 7.32488 6.613C7.04574 6.38411 6.77963 6.05198 6.54774 5.65678C6.07984 4.85934 5.8 3.8903 5.8 3.20478C5.8 2.56314 6.04782 1.95013 6.48524 1.50002ZM8.125 -0.0500031C7.27895 -0.0500031 6.4701 0.295954 5.87567 0.90763C5.28164 1.51889 4.95 2.34542 4.95 3.20478C4.95 4.07118 5.28673 5.18725 5.81462 6.08694C6.08063 6.5403 6.40721 6.95974 6.78591 7.27028C7.16496 7.58111 7.61861 7.8 8.125 7.8C8.63081 7.8 9.08428 7.58233 9.46353 7.27241C9.84236 6.96283 10.1691 6.54446 10.4352 6.09169C10.9634 5.19302 11.3 4.07687 11.3 3.20478C11.3 2.34542 10.9684 1.51889 10.3743 0.90763C9.7799 0.295953 8.97104 -0.0500031 8.125 -0.0500031ZM5.78242 8.37791C5.81246 7.95397 5.81217 7.95395 5.81187 7.95393L5.81117 7.95388L5.80946 7.95377L5.80482 7.95347L5.79078 7.95271C5.77932 7.95214 5.76372 7.9515 5.74424 7.95098C5.70531 7.94994 5.65079 7.94941 5.58288 7.95103C5.44726 7.95427 5.25719 7.96614 5.03061 8.00019C4.57893 8.06805 3.97214 8.22556 3.36207 8.58703C2.11065 9.3285 0.949997 10.8645 0.949997 13.9131C0.949997 13.9806 0.96608 14.0472 0.996915 14.1072L1.375 13.9131C0.996915 14.1072 0.997226 14.1078 0.997542 14.1084L0.99819 14.1097L0.999552 14.1123L1.00254 14.1178L1.00963 14.1304C1.01487 14.1395 1.02115 14.1498 1.02859 14.1612C1.04349 14.1841 1.063 14.2115 1.08817 14.2428C1.13859 14.3053 1.21108 14.3821 1.31364 14.4677C1.5187 14.639 1.84171 14.8435 2.34608 15.04C3.35097 15.4317 5.09674 15.8 8.12665 15.8C11.1565 15.8 12.9015 15.4317 13.9057 15.04C14.4097 14.8434 14.7324 14.6388 14.9372 14.4675C15.0396 14.3818 15.112 14.3049 15.1623 14.2423C15.1875 14.2111 15.2069 14.1836 15.2218 14.1606C15.2292 14.1492 15.2355 14.1389 15.2407 14.1298L15.2478 14.1172L15.2508 14.1116L15.2522 14.109L15.2528 14.1078C15.2531 14.1071 15.2534 14.1065 14.875 13.9131L15.2534 14.1065C15.284 14.0467 15.3 13.9804 15.3 13.9131C15.3 10.8661 14.1402 9.33021 12.8898 8.58833C12.2802 8.22664 11.6738 8.06881 11.2225 8.00067C10.996 7.96649 10.8061 7.95449 10.6706 7.95116C10.6027 7.9495 10.5482 7.94999 10.5093 7.951C10.4898 7.95151 10.4742 7.95215 10.4628 7.9527L10.4488 7.95346L10.4441 7.95375L10.4424 7.95386L10.4417 7.95391C10.4414 7.95393 10.4411 7.95395 10.4709 8.37791L10.4411 7.95395C10.3676 7.95912 10.2966 7.98333 10.2352 8.02422L8.12665 9.42907L6.01806 8.02422C5.95678 7.98338 5.88593 7.95918 5.81246 7.95397L5.78242 8.37791ZM1.85844 13.8153C1.83549 13.7961 1.81651 13.7789 1.801 13.764C1.83739 11.0701 2.86014 9.87242 3.79535 9.31831C4.28713 9.02692 4.7822 8.89705 5.15691 8.84075C5.34353 8.81271 5.49778 8.8033 5.60319 8.80079C5.61992 8.80039 5.63539 8.80016 5.64953 8.80006L7.891 10.2934C8.03371 10.3885 8.21958 10.3885 8.3623 10.2934L10.6036 8.80015C10.6177 8.80026 10.6331 8.8005 10.6497 8.80091C10.755 8.80349 10.9091 8.813 11.0956 8.84115C11.47 8.89766 11.9647 9.02779 12.4561 9.31935C13.3907 9.87385 14.4127 11.0717 14.449 13.7643C14.4335 13.7792 14.4146 13.7964 14.3918 13.8156C14.2689 13.9183 14.0297 14.0792 13.5968 14.2481C12.727 14.5874 11.0979 14.95 8.12665 14.95C5.15546 14.95 3.5254 14.5874 2.65474 14.2481C2.22134 14.0792 1.98164 13.9182 1.85844 13.8153ZM10.4992 8.80196C10.499 8.80197 10.4991 8.80197 10.4994 8.80195L10.4992 8.80196Z" fill="#3D3D3D"/>
</g>
<defs>
<clipPath id="clip0_4_1436">
<rect width="16" height="16" fill="white"/>
</clipPath>
</defs>
</svg>

<svg xmlns="http://www.w3.org/2000/svg" width="16" height="16" fill="currentColor" class="si si-User-Navicons" viewBox="0 0 16 16">
  <g clip-path="url(#a)">
    <path fill-rule="evenodd" d="M6.485 1.5c.437-.45 1.027-.7 1.64-.7s1.203.25 1.64.7.685 1.063.685 1.705c0 .692-.28 1.66-.748 2.456-.231.394-.497.725-.776.953s-.548.336-.801.336c-.252 0-.521-.108-.8-.337-.28-.229-.545-.561-.777-.956C6.08 4.859 5.8 3.89 5.8 3.205c0-.642.248-1.255.685-1.705m1.64-1.55c-.846 0-1.655.346-2.25.958a3.3 3.3 0 0 0-.925 2.297c0 .866.337 1.982.865 2.882.266.453.592.873.97 1.183.38.311.834.53 1.34.53s.96-.218 1.339-.528c.378-.31.705-.728.971-1.18.528-.899.865-2.015.865-2.887 0-.86-.332-1.686-.926-2.297A3.14 3.14 0 0 0 8.125-.05M5.782 8.378l.03-.424h-.007l-.014-.001a2 2 0 0 0-.208-.002 4.64 4.64 0 0 0-2.22.636C2.11 9.329.95 10.865.95 13.913q0 .103.047.194l.378-.194c-.378.194-.378.195-.377.195v.002l.002.002.003.006.007.012.019.031q.021.034.06.082c.05.062.122.14.225.225.205.171.528.376 1.032.572 1.005.392 2.75.76 5.78.76s4.776-.368 5.78-.76c.504-.197.826-.401 1.031-.572.103-.086.175-.163.225-.226a1 1 0 0 0 .079-.112l.007-.013.003-.005.001-.003v-.001c.001 0 .001-.002-.377-.195l.378.194a.4.4 0 0 0 .047-.194c0-3.047-1.16-4.583-2.41-5.325a4.64 4.64 0 0 0-2.427-.635h-.021l.029.425-.03-.424a.4.4 0 0 0-.206.07L8.127 9.43 6.018 8.024a.4.4 0 0 0-.206-.07zm-3.924 5.437-.057-.051c.036-2.694 1.06-3.892 1.994-4.446A3.8 3.8 0 0 1 5.65 8.8l2.241 1.493a.43.43 0 0 0 .471 0L10.604 8.8h.046a3.8 3.8 0 0 1 1.806.518c.935.556 1.957 1.754 1.993 4.446l-.057.052c-.123.102-.362.263-.795.432-.87.34-2.5.702-5.47.702-2.972 0-4.602-.363-5.472-.702-.434-.169-.673-.33-.797-.433M10.5 8.802"/>
  </g>
  <defs>
    <clipPath id="a">
      <path d="M0 0h16v16H0z"/>
    </clipPath>
  </defs>
</svg>
